X:1
T: Mackintosh's Maggott
N:
C:
S:
A:
O:
R:
M:4/4
K:G
I:speed 224
%W:
% voice 1 (1 lines, 21 notes)
K:G
M:4/4
L:1/16
d8 B8 |e12 d4 |c6 B2 A4 G4 |F4 A4 F4 D4 |d8 B8 |e12 f4 |g6 f2 e4 ^d4 |e16 |
%W:
% voice 1 (1 lines, 25 notes)
d8 B8 |e12 d4 |c6 d2 c4 B4 |A2 B2 A2 G2 F4 D4 |d8 B8 |e12 f4 |g2 a2 g2 f2 e4 ^d4 |e16 |
%W:
% voice 1 (1 lines, 27 notes)
d8 e2 f2 g4 |B12 B4 |c6 d2 e4 c4 |A4 G4 F4 D4 |G4 D4 A4 D4 |B4 D4 c4 E4 |B6 A2 G4 F4 |G16 |
%W:
% voice 1 (1 lines, 27 notes)
d8 e2 f2 g4 |B12 B4 |c6 d2 e4 c4 |A4 G4 F4 D4 |G4 D4 A4 D4 |B4 D4 c4 E4 |B6 A2 G4 F4 |G16 ||
